X:14459
T:ROND DE LOUDEAC 3
Z: Yves Belotteau
M:4/4
L:1/8
Q:1/4=150
K:G
|:GFEF GABB|GFEB BAB3/2 z/2 |GFEB BAB3/2 z/2:|
|BGBG BcBA|FGAB GFE3/2 z/2 |EGEE GAB3/2 z/2 |BcBA FDE3/2|
